assets/interlay-testnet/logo.svg

<svg width="64" height="64" viewBox="0 0 64 64" fill="none" xmlns="http://www.w3.org/2000/svg">
<rect width="64" height="64" fill="white"/>
<path d="M31.9949 64C23.4488 64 15.4196 60.6776 9.36734 54.6294C3.3252 48.5914 0 40.5477 0 32C0 23.4523 3.3252 15.4086 9.37748 9.37062C15.4196 3.3224 23.4488 0 31.9949 0C40.5411 0 48.5703 3.3224 54.6225 9.37062C60.6647 15.4188 64 23.4523 64 32C64 40.5477 60.6748 48.5914 54.6225 54.6294C48.5804 60.6776 40.5411 64 31.9949 64ZM31.9949 1.46062C23.834 1.46062 16.1597 4.63902 10.3811 10.4095C4.6127 16.18 1.43957 23.8431 1.43957 32C1.43957 40.1569 4.62284 47.82 10.3913 53.5905C16.1597 59.361 23.834 62.5394 32.0051 62.5394C40.166 62.5394 47.8403 59.361 53.6189 53.5905C59.3873 47.82 62.5604 40.1569 62.5604 32C62.5604 23.8431 59.3873 16.18 53.6189 10.4095C47.8403 4.63902 40.166 1.46062 31.9949 1.46062Z" fill="#1A0A2D"/>
<path d="M48.9253 46.1226H25.142C25.0305 46.1226 24.919 46.0917 24.8176 46.03L16.2207 40.6504C15.9369 40.4755 15.8355 40.095 16.0078 39.8069C16.1193 39.6218 16.3221 39.4984 16.5451 39.5087H40.3284C40.4399 39.5087 40.5515 39.5395 40.6528 39.6012L49.2497 44.9808C49.5336 45.1557 49.6349 45.5363 49.4626 45.8243C49.3511 46.0095 49.1483 46.1226 48.9253 46.1226ZM25.3143 44.878H46.7761L40.1662 40.7327H18.7045L25.3143 44.878Z" fill="#1A0A2D"/>
<path d="M47.4443 24.5016H23.661C23.5495 24.5016 23.438 24.4707 23.3366 24.409L14.7499 19.0294C14.4559 18.8545 14.3646 18.4739 14.537 18.1859C14.6485 17.9905 14.8512 17.8773 15.0743 17.8876H38.8576C38.9691 17.8876 39.0806 17.9185 39.182 17.9802L47.7788 23.3598C48.0728 23.5347 48.1641 23.9153 47.9917 24.2033C47.8701 24.3987 47.6673 24.5118 47.4443 24.5016ZM23.8333 23.2672H45.2951L38.6852 19.1219H17.2235L23.8333 23.2672Z" fill="#1A0A2D"/>
<path d="M35.28 29.3052C34.5805 28.6057 33.6377 28.2148 32.6644 28.2148H32.6239C30.5558 28.3383 28.9743 30.1281 29.0959 32.2264C29.2074 34.1705 30.7484 35.7237 32.6644 35.8163H32.705C34.7731 35.7957 36.4357 34.0779 36.4154 31.9795C36.3952 30.9818 35.9896 30.0149 35.28 29.3052Z" fill="#1A0A2D"/>
</svg>

<svg viewBox="0 0 64 64" xmlns="http://www.w3.org/2000/svg">
    <path fill="#fff" fill-rule="evenodd" d="M64 32C64 14.327 49.673 0 32 0 14.327 0 0 14.327 0 32c0 17.673 14.327 32 32 32 17.673 0 32-14.327 32-32Z"/>
    <path fill="#1a0a2d" d="M31.995 64c-8.546 0-16.575-3.322-22.628-9.37C3.325 48.59 0 40.547 0 32c0-8.548 3.325-16.591 9.377-22.63C15.42 3.323 23.45 0 31.995 0S48.57 3.322 54.623 9.37C60.665 15.42 64 23.453 64 32c0 8.548-3.325 16.591-9.377 22.63C48.58 60.677 40.54 64 31.995 64Zm0-62.54c-8.161 0-15.835 3.179-21.614 8.95C4.613 16.18 1.44 23.843 1.44 32s3.183 15.82 8.951 21.59c5.769 5.771 13.443 8.95 21.614 8.95 8.161 0 15.835-3.179 21.614-8.95C59.387 47.82 62.56 40.157 62.56 32s-3.173-15.82-8.941-21.59C47.84 4.639 40.166 1.46 31.995 1.46Z"/>
    <path fill="#1a0a2d" d="M48.925 46.123H25.142a.622.622 0 0 1-.324-.093l-8.597-5.38a.625.625 0 0 1-.213-.843.602.602 0 0 1 .537-.298h23.783c.112 0 .223.03.325.092l8.597 5.38a.625.625 0 0 1 .213.843.623.623 0 0 1-.538.299Zm-23.61-1.245h21.461l-6.61-4.145H18.705l6.61 4.145Z"/>
    <path fill="#1a0a2d" d="M47.444 24.502H23.661a.622.622 0 0 1-.324-.093l-8.587-5.38a.616.616 0 0 1-.213-.843.582.582 0 0 1 .537-.298h23.784c.111 0 .223.03.324.092l8.597 5.38a.616.616 0 0 1-.335 1.142Zm-23.61-1.235h21.461l-6.61-4.145H17.223l6.61 4.145Z"/>
    <path fill="#1a0a2d" d="M35.28 29.305c-.7-.7-1.642-1.09-2.616-1.09h-.04c-2.068.123-3.65 1.913-3.528 4.011.111 1.945 1.652 3.498 3.568 3.59h.041c2.068-.02 3.73-1.738 3.71-3.837a3.906 3.906 0 0 0-1.135-2.674Z"/>
</svg>
